16x16/apps/EasyTAG_icon.svg

<svg xmlns="http://www.w3.org/2000/svg" width="16" height="16" version="1.1">
 <path style="fill:#5bb237" d="M 4.6869159,1.7364e-4 C 4.2644913,0.0034176 3.8023459,0.17196846 3.5298972,0.44782502 L 2.6424069,1.347034 C 2.2793392,1.7149752 1.6853737,2.3167103 1.3221084,2.6845197 L 0.43461806,3.5829472 C 0.0715508,3.9508224 -0.0979932,4.6561007 0.05805963,5.1493366 L 0.88226945,7.7563395 C 1.0382564,8.2498401 1.4662765,8.9516609 1.8330404,9.3156974 l 6.4616487,6.4132116 c 0.3668961,0.364169 0.964262,0.360711 1.3273296,-0.007 l 2.3937233,-2.424192 c 0.363332,-0.367941 0.9571,-0.969611 1.320299,-1.337486 l 2.393724,-2.424192 c 0.363199,-0.3680072 0.359734,-0.9670671 -0.007,-1.3312356 L 9.2610851,1.7915604 C 8.894321,1.427392 8.1898975,1.0054435 7.696258,0.85407062 L 5.0876927,0.0540793 C 4.9642665,0.01625263 4.827724,-9.0710827e-4 4.6869159,1.7364e-4 Z M 4.0002045,2.8001433 c 0.6626492,0 1.199987,0.5372461 1.199987,1.1999869 -9.16e-5,0.6627408 -0.5373378,1.199987 -1.199987,1.199987 -0.6627408,0 -1.1999869,-0.5372462 -1.1999869,-1.199987 0,-0.6626492 0.5372461,-1.1999869 1.1999869,-1.1999869 z"/>
 <path style="fill:#f4f4f7" d="M 9.9623918,2.4876467 C 8.3983,2.8946082 6.8409393,3.3331963 5.2968177,3.8087259 5.1242491,3.8618665 4.97011,3.9234471 4.82651,3.9907551 4.82259,4.4638584 4.439835,4.8462147 3.9671445,4.8462147 c -0.022996,0 -0.044647,-0.00448 -0.067187,-0.00625 -0.18643,0.3687944 -0.252712,0.8208047 -0.1953103,1.3843602 0.1625219,1.5978539 0.3832207,3.189579 0.6038995,4.7804171 0.041618,0.299985 0.088078,0.600095 0.1328114,0.89999 l 2.7632512,2.742158 c 1.6048378,-0.446 3.2082987,-0.897637 4.8116667,-1.349985 0.363388,-0.368 0.956531,-0.969046 1.319517,-1.336705 l 0.0039,-0.0039 c -0.03232,-0.478535 -0.06459,-0.949183 -0.09844,-1.452328 -0.24319,0.06844 -0.419835,0.118326 -0.596088,0.167967 -1.496035,0.421488 -2.9956519,0.83192 -4.4866701,1.27108 -0.4280648,0.126133 -0.595077,-0.0062 -0.6288751,-0.425798 C 7.4967442,11.11367 7.4397592,10.711786 7.384309,10.233641 7.6121829,10.169504 7.8053669,10.117643 7.9968024,10.060986 9.1464051,9.7199178 10.305545,9.407656 11.442077,9.0274037 12.484806,8.6786571 12.936397,8.0533931 12.870187,6.9610201 12.834743,6.37748 12.780005,5.7930416 12.706126,5.2110391 Z M 9.3498985,4.9844948 c 0.145622,-0.00124 0.2322243,0.082552 0.2570284,0.2890592 0.068323,0.5710734 0.1674326,1.1391705 0.2062478,1.7117003 C 9.8234066,7.1343766 9.6894704,7.3956022 9.5670837,7.4352494 8.7665532,7.6953033 7.9503009,7.9080482 7.0803919,8.15321 6.9842122,7.4073997 6.8751725,6.7386037 6.8288322,6.0657326 6.8184044,5.9156839 6.9960468,5.6575667 7.1405473,5.6079252 7.8116276,5.3793105 8.5027649,5.2104563 9.1842755,5.0126193 c 0.061523,-0.017804 0.1170823,-0.027712 0.165623,-0.028124 z"/>
 <path style="fill:#c7c7c7" d="M 3.9999999,2 C 2.897213,2 2,2.8972125 2,3.9999999 2,5.1026965 2.897213,6 3.9999999,6 5.102788,6 6,5.1026965 6,3.9999999 5.999909,2.8972125 5.102697,2 3.9999999,2 Z m 0,1 C 4.5522139,3 5,3.4477099 5,3.9999999 5,4.5522899 4.5522904,5 3.9999999,5 3.4477104,5 3,4.5522899 3,3.9999999 3,3.4477099 3.4477104,3 3.9999999,3 Z"/>
 <path style="fill:#17191e" d="m 3.7076773,11.180064 c -0.061919,0.673665 -0.3879542,1.812306 -1.0437855,2.402441 -0.3085415,0.277528 -0.6813783,0.417517 -1.1112499,0.417517 -0.091229,0 -0.1850983,-0.0064 -0.2814102,-0.019 -0.59199765,-0.07751 -0.99850092,-0.5166 -1.17554572,-1.269625 -0.52928606,-2.250207 1.19625732,-7.05139 3.71739662,-8.7554099 0.080667,-0.054473 0.1899831,-0.033028 0.2442449,0.047722 0.054394,0.080749 0.033072,0.1904899 -0.047529,0.2449629 -2.5185646,1.7022332 -4.02369311,6.459599 -3.57157537,8.38171 0.14258641,0.606286 0.43818916,0.94292 0.87855677,1.000702 0.4492792,0.05884 0.8132706,-0.04282 1.1115798,-0.31082 0.6674496,-0.599998 0.9225872,-1.924164 0.9480021,-2.468961"/>
</svg>

<svg xmlns="http://www.w3.org/2000/svg" width="16" height="16"><path style="fill:#5bb237" d="M4.687 0c-.423.003-.885.172-1.157.448l-.888.899-1.32 1.338-.887.898C.072 3.95-.098 4.656.058 5.149l.824 2.607c.156.494.584 1.196.951 1.56l6.462 6.413a.94.94 0 0 0 1.327-.007l2.394-2.424 1.32-1.338 2.394-2.424a.946.946 0 0 0-.007-1.331L9.26 1.792c-.367-.365-1.071-.787-1.565-.938l-2.608-.8A1.34 1.34 0 0 0 4.687 0zM4 2.8a1.2 1.2 0 1 1 0 2.4 1.2 1.2 0 0 1 0-2.4z"/><path style="fill:#f4f4f7" d="M9.962 2.488a109.76 109.76 0 0 0-4.665 1.32 3.582 3.582 0 0 0-.47.183.86.86 0 0 1-.86.855c-.023 0-.045-.004-.067-.006-.186.369-.253.82-.195 1.384.162 1.598.383 3.19.604 4.78.041.3.088.6.132.9l2.764 2.743c1.604-.446 3.208-.898 4.811-1.35l1.32-1.337.004-.004-.099-1.452-.596.168c-1.496.421-2.995.832-4.487 1.271-.428.126-.595-.006-.628-.426-.033-.403-.09-.805-.146-1.283.228-.064.421-.116.613-.173 1.15-.341 2.309-.653 3.445-1.034 1.043-.348 1.494-.974 1.428-2.066a26.817 26.817 0 0 0-.164-1.75zM9.35 4.984c.146 0 .232.083.257.29.068.57.167 1.139.206 1.711.01.15-.124.41-.246.45-.8.26-1.617.473-2.487.718-.096-.746-.205-1.414-.251-2.087-.01-.15.167-.408.312-.458.67-.229 1.362-.398 2.043-.595a.628.628 0 0 1 .166-.029z"/><path style="fill:#c7c7c7" d="M4 2c-1.103 0-2 .897-2 2s.897 2 2 2 2-.897 2-2-.897-2-2-2zm0 1a1 1 0 1 1 0 2 1 1 0 0 1 0-2z"/><path style="fill:#17191e" d="M3.708 11.18c-.062.674-.388 1.812-1.044 2.403A1.61 1.61 0 0 1 1.553 14a2.17 2.17 0 0 1-.282-.019c-.592-.077-.998-.517-1.175-1.27-.53-2.25 1.196-7.051 3.717-8.755a.177.177 0 0 1 .197.293C1.49 5.95-.014 10.709.438 12.63c.143.607.438.943.879 1.001.45.059.813-.043 1.111-.31.668-.6.923-1.925.948-2.47"/></svg>
